X:62
T:I Saw My Love Come Passing By Me
Z:Jack Campin, http://www.campin.me.uk/
S:Northumbrian Minstrelsy
M:C
L:1/16
K:G
ef|g2G2 BcdB g4   d2ef|g2G2 BcdB f4   A2ef |
   g2G2 BcdB B2G2 BcdB|cdec BcdB ABcA efge:| 
   g2d2`g2B2 g2d2 efge|g2d2`g2B2 g2A2 efge |
   g2d2`g2G2 g2G2 BcdB|cdec BcdB ABcA efge:|

